X:100
T:Mick Howard's Polka
B:Terry "Cuz" Teahan "Sliabh Luachra on Parade" 1980
Z:Patrick Cavanagh
M:2/4
L:1/8
R:Polka
K:A
| AF EF | AB c2 | eB cA | BA F2 | 
AF EF | AB c2 | ec Bc/B/ | A2 A2 :| 
| af ef | af ec | ec ed | BA F2 | 
AF EF | AB c2 | ec Bc/B/ | A2 A2 :|| 

